X: 4557
T: Boston, The
R: reel
M: 4/4
K: Dmajor
~D3F ABAF|~E2ef edBd|A2FB ABdf|1 afeg fdd2:|2 afeg fdBc||
d2(3fed adfe|defb afef|1 d2(3fed adfd|
ABde fddc:|2 d3B ~A2bf|afef d3||

